X: 35736
T: Säkkijärven Polkka
R: polka
M: 2/4
K: Eminor
B B/G/ E E/G/|B B/G/ E E/G/|BB cB|A/G/A/G/ F F/G/|
A A/G/ F F/G/|A A/G/ F F/G/|AA BA|G/A/G/F/ E E/G/|
B B/A/ E E/G/|B B/G/ E E/G/|BB ed|c/d/c/B/ AA|
c c/B/ Ac|B B/G/ E E/G/|B B/^A/ c^d|ee ez||
|:E E/F/ G/F/G/_A/|A A/B/ c/B/ A|BF B/A/G/F/|E E/F/ G/F/ E|
E E/G/ G/F/G/_A/|A A/B/ c/B/ A|BF B/A/G/F/|1 EE EE:|2 E2- E||

